scalable/apps/youtube.svg

<?xml version="1.0" encoding="UTF-8" standalone="no"?>
<!-- Generator: Adobe Illustrator 19.0.0, SVG Export Plug-In . SVG Version: 6.00 Build 0)  -->

<svg
   xmlns:dc="http://purl.org/dc/elements/1.1/"
   xmlns:cc="http://creativecommons.org/ns#"
   xmlns:rdf="http://www.w3.org/1999/02/22-rdf-syntax-ns#"
   xmlns:svg="http://www.w3.org/2000/svg"
   xmlns="http://www.w3.org/2000/svg"
   xmlns:sodipodi="http://sodipodi.sourceforge.net/DTD/sodipodi-0.dtd"
   xmlns:inkscape="http://www.inkscape.org/namespaces/inkscape"
   version="1.1"
   id="Capa_1"
   x="0px"
   y="0px"
   viewBox="0 0 48 48"
   xml:space="preserve"
   sodipodi:docname="youtube.svg"
   width="48"
   height="48"
   inkscape:version="0.92.3 (2405546, 2018-03-11)"><metadata
   id="metadata41"><rdf:RDF><cc:Work
       rdf:about=""><dc:format>image/svg+xml</dc:format><dc:type
         rdf:resource="http://purl.org/dc/dcmitype/StillImage" /><dc:title /></cc:Work></rdf:RDF></metadata><defs
   id="defs39" /><sodipodi:namedview
   pagecolor="#ffffff"
   bordercolor="#666666"
   borderopacity="1"
   objecttolerance="10"
   gridtolerance="10"
   guidetolerance="10"
   inkscape:pageopacity="0"
   inkscape:pageshadow="2"
   inkscape:window-width="1366"
   inkscape:window-height="719"
   id="namedview37"
   showgrid="false"
   showguides="true"
   inkscape:guide-bbox="true"
   inkscape:zoom="3.7565048"
   inkscape:cx="24"
   inkscape:cy="24"
   inkscape:window-x="0"
   inkscape:window-y="25"
   inkscape:window-maximized="1"
   inkscape:current-layer="Capa_1" />


<g
   id="g6"
   transform="translate(0,-464)">
</g>
<g
   id="g8"
   transform="translate(0,-464)">
</g>
<g
   id="g10"
   transform="translate(0,-464)">
</g>
<g
   id="g12"
   transform="translate(0,-464)">
</g>
<g
   id="g14"
   transform="translate(0,-464)">
</g>
<g
   id="g16"
   transform="translate(0,-464)">
</g>
<g
   id="g18"
   transform="translate(0,-464)">
</g>
<g
   id="g20"
   transform="translate(0,-464)">
</g>
<g
   id="g22"
   transform="translate(0,-464)">
</g>
<g
   id="g24"
   transform="translate(0,-464)">
</g>
<g
   id="g26"
   transform="translate(0,-464)">
</g>
<g
   id="g28"
   transform="translate(0,-464)">
</g>
<g
   id="g30"
   transform="translate(0,-464)">
</g>
<g
   id="g32"
   transform="translate(0,-464)">
</g>
<g
   id="g34"
   transform="translate(0,-464)">
</g>
<g
   id="g902"><path
     inkscape:connector-curvature="0"
     id="path837"
     d="m 24.000976,0.3457035 c -5.833461,0 -10.522199,1.1203776 -13.935547,3.3320313 -4.1011925,2.6574037 -6.2695305,6.9015122 -6.2695305,12.2714832 0,7.226706 5.806265,16.88549 7.5859365,19.673828 2.031747,3.183082 4.250107,6.079783 6.246094,8.15625 2.542362,2.644284 4.56815,3.875 6.373047,3.875 1.804991,0 3.829009,-1.230625 6.371093,-3.875 1.995894,-2.076376 4.214348,-4.973077 6.246094,-8.15625 C 38.397835,32.8348 44.204101,23.175924 44.204101,15.949219 44.204193,10.57934 42.037899,6.3352307 37.936523,3.6777348 34.523359,1.4660811 29.834346,0.3457035 24.000976,0.3457035 Z"
     style="fill:#a51d1e;stroke-width:0.0924025" /><path
     inkscape:connector-curvature="0"
     id="path833-3"
     d="m 13.387694,12.298829 c -1.46917,0 -2.652343,1.183172 -2.652343,2.652342 v 12.240235 c 0,1.469171 1.183173,2.652344 2.652343,2.652344 h 21.111329 c 1.46917,-1e-6 2.652343,-1.183173 2.652343,-2.652344 V 14.951171 c 0,-1.46917 -1.183173,-2.652342 -2.652343,-2.652342 z"
     style="opacity:0.4;fill:#000000;fill-opacity:1;stroke:none;stroke-width:5.33300018;stroke-linecap:butt;stroke-linejoin:round;stroke-miterlimit:4;stroke-dasharray:none;stroke-dashoffset:0;stroke-opacity:1;paint-order:markers fill stroke" /><path
     inkscape:connector-curvature="0"
     id="path833"
     d="m 13.387694,10.298829 c -1.46917,0 -2.652343,1.183172 -2.652343,2.652342 v 12.240235 c 0,1.469171 1.183173,2.652344 2.652343,2.652344 h 21.111329 c 1.46917,-1e-6 2.652343,-1.183173 2.652343,-2.652344 V 12.951171 c 0,-1.46917 -1.183173,-2.652342 -2.652343,-2.652342 z"
     style="opacity:1;fill:#ffd5d5;fill-opacity:1;stroke:none;stroke-width:5.33300018;stroke-linecap:butt;stroke-linejoin:round;stroke-miterlimit:4;stroke-dasharray:none;stroke-dashoffset:0;stroke-opacity:1;paint-order:markers fill stroke" /><path
     inkscape:connector-curvature="0"
     id="rect834-6"
     d="m 21.08496,15.971206 6.603516,4.238282 -6.800782,4.630859 z"
     style="opacity:0.4;fill:#000000;fill-opacity:1;stroke:none;stroke-width:5.33300018;stroke-linecap:butt;stroke-linejoin:round;stroke-miterlimit:4;stroke-dasharray:none;stroke-dashoffset:0;stroke-opacity:1;paint-order:markers fill stroke" /><path
     inkscape:connector-curvature="0"
     id="rect834"
     d="M 21.08496,14.636718 27.688476,18.875 20.887694,23.505859 Z"
     style="opacity:1;fill:#a51d1e;fill-opacity:1;stroke:none;stroke-width:5.33300018;stroke-linecap:butt;stroke-linejoin:round;stroke-miterlimit:4;stroke-dasharray:none;stroke-dashoffset:0;stroke-opacity:1;paint-order:markers fill stroke" /><path
     inkscape:connector-curvature="0"
     id="path4588"
     d="m 24.000977,0.3457035 c -5.833461,0 -10.522199,1.1203783 -13.935547,3.3320313 -4.101193,2.657404 -6.269532,6.9015132 -6.269532,12.2714842 0,7.226706 5.806266,16.88549 7.585938,19.673828 2.031747,3.183082 4.250107,6.079783 6.246094,8.15625 2.542362,2.644284 4.56815,3.875 6.373047,3.875 1.804991,0 3.829009,-1.230625 6.371093,-3.875 1.995894,-2.076376 4.214348,-4.973077 6.246094,-8.15625 C 38.397835,32.834801 44.204102,23.175925 44.204102,15.94922 44.204194,10.579341 42.037898,6.3352309 37.936524,3.6777348 34.52336,1.4660818 29.834346,0.3457035 24.000977,0.3457035 Z m 0,0.14453126 c 2.112445,0.084873 4.119293,0.27168527 5.875,0.69140624 1.164035,0.2782756 2.252954,0.6269196 3.263671,1.0429688 1.010718,0.4160492 1.943585,0.9002116 2.796876,1.453125 1.025343,0.6643739 1.929139,1.4277032 2.708984,2.2832031 0.779844,0.8554999 1.435774,1.803713 1.96289,2.8359375 0.527119,1.0322245 0.926199,2.1492036 1.19336,3.3437506 0.267161,1.194547 0.402367,2.466124 0.402344,3.808593 0,1.806677 -0.363402,3.765127 -0.935547,5.730469 -0.572145,1.965342 -1.352441,3.93819 -2.189453,5.771484 -1.674026,3.666589 -3.571102,6.777752 -4.460938,8.171875 -2.031746,3.183173 -4.2502,6.079875 -6.246094,8.15625 -1.271042,1.322188 -2.413501,2.291486 -3.46289,2.929688 -0.319034,0.194026 -0.618451,0.306539 -0.910156,0.390625 C 23.707507,47.01557 23.409464,46.902691 23.09082,46.708985 22.040966,46.07077 20.899111,45.101439 19.62793,43.779297 17.631943,41.70283 15.413583,38.806129 13.381836,35.623047 12.492,34.228878 10.594924,31.117749 8.920898,27.451172 8.083886,25.617884 7.30359,23.645022 6.731445,21.679688 6.159301,19.714354 5.795899,17.755896 5.795898,15.949219 c 0,-1.342492 0.134981,-2.614034 0.402344,-3.808593 C 6.465605,10.946067 6.866188,9.8291 7.393555,8.7968754 7.920922,7.7646508 8.576433,6.8164264 9.356445,5.9609379 10.136457,5.1054494 11.040132,4.3420858 12.06543,3.6777348 c 0.853337,-0.5529133 1.786156,-1.0370759 2.796875,-1.453125 1.010719,-0.4160492 2.099654,-0.7646932 3.263672,-1.0429688 1.755679,-0.41972098 3.762539,-0.60653321 5.875,-0.69140624 z"
     style="opacity:0.2;fill:#000000;stroke-width:0.0924025" /></g></svg>

<svg xmlns="http://www.w3.org/2000/svg" width="48" height="48"><path d="M24 .35c-5.83 0-10.52 1.12-13.93 3.33-4.1 2.66-6.27 6.9-6.27 12.27 0 7.23 5.8 16.88 7.58 19.67a54.48 54.48 0 0 0 6.25 8.16c2.54 2.64 4.57 3.87 6.37 3.87 1.8 0 3.83-1.23 6.37-3.87 2-2.08 4.22-4.97 6.25-8.16 1.78-2.79 7.58-12.44 7.58-19.67 0-5.37-2.16-9.61-6.26-12.27C34.52 1.47 29.84.35 24 .35z" fill="#a51d1e"/><path d="M13.39 12.3a2.65 2.65 0 0 0-2.65 2.65V27.2a2.65 2.65 0 0 0 2.65 2.65h21.1a2.65 2.65 0 0 0 2.66-2.65V14.95a2.65 2.65 0 0 0-2.65-2.65z" opacity=".4" paint-order="markers fill stroke"/><path d="M13.39 10.3a2.65 2.65 0 0 0-2.65 2.65V25.2a2.65 2.65 0 0 0 2.65 2.65h21.1a2.65 2.65 0 0 0 2.66-2.65V12.95a2.65 2.65 0 0 0-2.65-2.65z" fill="#ffd5d5" paint-order="markers fill stroke"/><path d="M21.08 15.97l6.6 4.24-6.8 4.63z" opacity=".4" paint-order="markers fill stroke"/><path d="M21.08 14.64l6.6 4.23-6.8 4.64z" fill="#a51d1e" paint-order="markers fill stroke"/><path d="M24 .35c-5.83 0-10.52 1.12-13.93 3.33-4.1 2.66-6.27 6.9-6.27 12.27 0 7.23 5.8 16.88 7.58 19.67a54.48 54.48 0 0 0 6.25 8.16c2.54 2.64 4.57 3.87 6.37 3.87 1.8 0 3.83-1.23 6.37-3.87 2-2.08 4.22-4.97 6.25-8.16 1.78-2.79 7.58-12.44 7.58-19.67 0-5.37-2.16-9.61-6.26-12.27C34.52 1.47 29.84.35 24 .35zm0 .14c2.11.09 4.12.27 5.88.7 1.16.27 2.25.62 3.26 1.03 1.01.42 1.94.9 2.8 1.46A12.92 12.92 0 0 1 40.6 8.8c.53 1.03.92 2.15 1.2 3.34.26 1.2.4 2.47.4 3.8 0 1.82-.37 3.77-.94 5.74a43.19 43.19 0 0 1-2.2 5.77 69.59 69.59 0 0 1-4.45 8.17 54.47 54.47 0 0 1-6.25 8.16 17.98 17.98 0 0 1-3.46 2.93c-.32.2-.62.3-.91.39-.3-.08-.6-.2-.9-.4-1.06-.63-2.2-1.6-3.47-2.92-2-2.08-4.22-4.97-6.25-8.16a69.6 69.6 0 0 1-4.46-8.17 43.19 43.19 0 0 1-2.19-5.77 20.93 20.93 0 0 1-.93-5.73c0-1.34.13-2.61.4-3.8.27-1.2.67-2.32 1.2-3.35a12.92 12.92 0 0 1 4.67-5.12 17.1 17.1 0 0 1 2.8-1.46c1-.41 2.1-.76 3.26-1.04C19.88.76 21.89.58 24 .5z" opacity=".2"/></svg>
